Papirus/22x22/apps/org.gnome.DiskUtility.svg

<svg width="22" height="22" version="1.1" xmlns="http://www.w3.org/2000/svg">
 <rect x="3" y="1.5" width="15" height="20" rx="1.5" ry="1.626" style="opacity:.2"/>
 <rect x="3" y="1" width="15" height="20" rx="1.5" ry="1.626" style="fill:#e4e4e4"/>
 <path d="m4.5 2c-0.2761424 0-0.5 0.2238576-0.5 0.5s0.2238576 0.5 0.5 0.5 0.5-0.2238576 0.5-0.5-0.2238576-0.5-0.5-0.5zm2.027344 0c-0.400111 0-0.72168 0.3345-0.72168 0.75 0 0.6213207-0.484697 1.125-1.083008 1.125-0.4001095 0-0.722656 0.3345-0.722656 0.75v2.0005c0 0.4155005 0.3225455 0.75 0.722656 0.75 0.598311 0 1.083008 0.503679 1.083008 1.125-6e-4 0.276966-0.099054 0.54401-0.2773435 0.75-1.0692805 1.236118-1.52576 2.337878-1.5283205 3.9995 0 0.0223 0.0027 0.03774 0.00295 0.05957-0.0019133 0.063459-0.0028967 0.126942-0.00295 0.19043 0 3.589851 2.9101491 6.5 6.5 6.5 3.589851 0 6.5-2.910149 6.5-6.5 3.1e-5 -0.06609-9.46e-4 -0.13218-0.0029-0.198242 1.27e-4 -0.019026 0.0029-0.032369 0.0029-0.051758-0.0028-1.661779-0.458623-2.763559-1.528321-3.9995-0.178224-0.206016-0.276907-0.4730585-0.277343-0.75 0-0.621321 0.484698-1.125 1.083008-1.125 0.40011 0 0.722656-0.3344995 0.722656-0.75v-2.0005c0-0.4155-0.322546-0.75-0.722656-0.75-0.59831 0-1.083008-0.5036793-1.083008-1.125 0-0.4155-0.321569-0.75-0.72168-0.75zm9.972656 0c-0.276142 0-0.5 0.2238576-0.5 0.5s0.223858 0.5 0.5 0.5 0.5-0.2238576 0.5-0.5-0.223858-0.5-0.5-0.5zm-12 6.0005c-0.2761424 0-0.5 0.2238576-0.5 0.5s0.2238576 0.5 0.5 0.5 0.5-0.2238576 0.5-0.5-0.2238576-0.5-0.5-0.5zm12 0c-0.276142 0-0.5 0.2238576-0.5 0.5s0.223858 0.5 0.5 0.5 0.5-0.2238576 0.5-0.5-0.223858-0.5-0.5-0.5zm-12 10.9995c-0.2761424 0-0.5 0.223858-0.5 0.5s0.2238576 0.5 0.5 0.5 0.5-0.223858 0.5-0.5-0.2238576-0.5-0.5-0.5zm12 0c-0.276142 0-0.5 0.223858-0.5 0.5s0.223858 0.5 0.5 0.5 0.5-0.223858 0.5-0.5-0.223858-0.5-0.5-0.5z" style="fill:#ababab"/>
 <path d="m10.617037 8.4999998c-0.417361 0-0.821889 0.095954-1.194913 0.2258967l1.969995 1.9683655c0.404835 0.404492 0.404835 1.047555 0 1.452068l-0.742785 0.74217c-0.404836 0.404492-1.048438 0.404492-1.453275 0l-1.9699928-1.968363c-0.1300588 0.372698-0.2260662 0.776898-0.2260662 1.193919 0 1.995983 1.6194038 3.614034 3.617038 3.614034 0.417364 0 0.821892-0.09596 1.194917-0.225873l5.365722 5.372659c1.724719 1.728035 3.886566-0.50056 2.228347-2.161964l-5.398014-5.404934c0.130056-0.3727 0.226063-0.7769 0.226063-1.19392 0-1.995984-1.619403-3.6140582-3.617039-3.6140582z" style="opacity:.2"/>
 <path d="m4.5 2c-0.2761424 0-0.5 0.2238576-0.5 0.5 0 0.0928949 0.0320373 0.1754706 0.0761719 0.25 0.0870614-0.1470193 0.2405806-0.25 0.4238281-0.25s0.3367667 0.1029807 0.4238281 0.25c0.0441346-0.0745294 0.0761719-0.1571051 0.0761719-0.25 0-0.2761424-0.2238576-0.5-0.5-0.5zm2.0273438 0c-0.400111 0-0.7226563 0.3345-0.7226563 0.75 0 0.6213207-0.4837202 1.125-1.0820313 1.125-0.4001094 0-0.7226562 0.3345-0.7226562 0.75v0.5c0-0.4155 0.3225468-0.75 0.7226562-0.75 0.5983111 0 1.0820313-0.5036793 1.0820313-1.125 0-0.4155 0.3225453-0.75 0.7226563-0.75h7.9453122c0.400111 0 0.722656 0.3345 0.722656 0.75 0 0.6213207 0.483722 1.125 1.082032 1.125 0.40011 0 0.722656 0.3345 0.722656 0.75v-0.5c0-0.4155-0.322546-0.75-0.722656-0.75-0.59831 0-1.082032-0.5036793-1.082032-1.125 0-0.4155-0.322545-0.75-0.722656-0.75zm9.9726562 0c-0.276142 0-0.5 0.2238576-0.5 0.5 0 0.092895 0.03204 0.1754706 0.07617 0.25 0.087063-0.1470193 0.240583-0.25 0.42383-0.25s0.336767 0.1029807 0.423828 0.25c0.044135-0.0745294 0.076172-0.1571051 0.076172-0.25 0-0.2761424-0.223858-0.5-0.5-0.5zm-12 6c-0.2761424 0-0.5 0.2238576-0.5 0.5 0 0.0928949 0.0320373 0.1754706 0.0761719 0.25 0.0871835-0.1465137 0.2409606-0.25 0.4238281-0.25s0.3366446 0.1034863 0.4238281 0.25c0.0441346-0.0745294 0.0761719-0.1571051 0.0761719-0.25 0-0.2761424-0.2238576-0.5-0.5-0.5zm12 0c-0.276142 0-0.5 0.2238576-0.5 0.5 0 0.092895 0.03204 0.1754706 0.07617 0.25 0.087185-0.1465137 0.240963-0.25 0.42383-0.25s0.336645 0.1034863 0.423828 0.25c0.044135-0.0745294 0.076172-0.1571051 0.076172-0.25 0-0.2761424-0.223858-0.5-0.5-0.5zm-10.740234 0.7617188c-0.0420581 0.1789318-0.110136 0.3492522-0.2304687 0.4882812-1.0692805 1.236118-1.5267364 2.338378-1.5292969 4 0 0.0223 0.00366 0.03676 0.00391 0.05859-0.0019171 0.063463-0.0038567 0.127922-0.00391 0.19141 0 0.05147 0.00662 0.101154 0.00781 0.152344 0.0214078-1.603494 0.4748642-2.692419 1.5214869-3.902344 0.1782895-0.20599 0.2747906-0.473034 0.2753906-0.75 0-0.084546-0.027907-0.1590648-0.044922-0.2382812zm9.4804684 0c-0.017014 0.0792164-0.044922 0.1537356-0.044922 0.2382812 4.36e-4 0.276942 0.09717 0.543984 0.275391 0.75 1.047031 1.209752 1.499881 2.298702 1.521485 3.902344 0.00119-0.05119 0.007812-0.100869 0.007812-0.152344 3.1e-5 -0.06609 1e-6 -0.131204-2e-3 -0.197266 1.74e-4 -0.019026 2e-3 -0.033345 2e-3 -0.052734-0.0028-1.661779-0.459599-2.764059-1.529297-4-0.120288-0.139046-0.188398-0.3093555-0.230469-0.4882812zm-10.740234 10.238281c-0.2761424 0-0.5 0.223858-0.5 0.5 0 0.09289 0.032037 0.175471 0.076172 0.25 0.0870613-0.147019 0.2405805-0.25 0.423828-0.25s0.3367667 0.102981 0.4238281 0.25c0.0441346-0.074529 0.0761719-0.157105 0.0761719-0.25 0-0.276142-0.2238576-0.5-0.5-0.5zm12 0c-0.276142 0-0.5 0.223858-0.5 0.5 0 0.09289 0.03204 0.175471 0.07617 0.25 0.08706-0.147019 0.240581-0.25 0.423828-0.25s0.336767 0.102981 0.423828 0.25c0.044137-0.074529 0.076174-0.157105 0.076174-0.25 0-0.276142-0.223858-0.5-0.5-0.5z" style="opacity:.2"/>
 <path d="m10.617037 8c-0.417361 0-0.821889 0.095954-1.194913 0.2258967l1.969995 1.9683663c0.404835 0.404491 0.404835 1.047554 0 1.452068l-0.742785 0.74217c-0.404836 0.404492-1.048438 0.404492-1.453275 0l-1.9699928-1.968364c-0.1300588 0.372699-0.2260662 0.776898-0.2260662 1.193919 0 1.995984 1.6194038 3.614035 3.617038 3.614035 0.417364 0 0.821892-0.09596 1.194917-0.225874l5.365722 5.37266c1.724719 1.728035 3.886566-0.50056 2.228347-2.161965l-5.398014-5.404934c0.130056-0.372699 0.226063-0.776899 0.226063-1.19392 0-1.995983-1.619403-3.614058-3.617039-3.614058z" style="fill:#4f4f4f"/>
 <path d="M 4.5,1 C 3.669,1 3,1.7249655 3,2.6259765 v 0.5 C 3,2.2249655 3.669,1.5 4.5,1.5 h 12 c 0.831,0 1.5,0.7249655 1.5,1.6259765 v -0.5 C 18,1.7249655 17.331,1 16.5,1 Z" style="fill:#ffffff;opacity:.2"/>
</svg>

<svg xmlns="http://www.w3.org/2000/svg" width="22" height="22" version="1.1">
 <rect style="opacity:0.2" width="15" height="20" x="3" y="1.5" rx="1.5" ry="1.626"/>
 <rect style="fill:#e4e4e4" width="15" height="20" x="3" y="1" rx="1.5" ry="1.626"/>
 <path style="fill:#ababab" d="M 4.5,2 C 4.2238576,2 4,2.2238576 4,2.5 4,2.7761424 4.2238576,3 4.5,3 4.7761424,3 5,2.7761424 5,2.5 5,2.2238576 4.7761424,2 4.5,2 Z m 2.027344,0 c -0.400111,0 -0.72168,0.3345 -0.72168,0.75 0,0.6213207 -0.484697,1.125 -1.083008,1.125 C 4.3225465,3.875 4,4.2095 4,4.625 v 2.0005 c 0,0.4155005 0.3225455,0.75 0.722656,0.75 0.598311,0 1.083008,0.503679 1.083008,1.125 -6e-4,0.276966 -0.099054,0.54401 -0.2773435,0.75 C 4.45904,10.486618 4.0025605,11.588378 4,13.25 4,13.2723 4.0027,13.28774 4.00295,13.30957 4.0010367,13.373029 4.0000533,13.436512 4,13.5 4,17.089851 6.9101491,20 10.5,20 14.089851,20 17,17.089851 17,13.5 17.000031,13.43391 16.999054,13.36782 16.9971,13.301758 16.997227,13.282732 17,13.269389 17,13.25 16.9972,11.588221 16.541377,10.486441 15.471679,9.2505 15.293455,9.044484 15.194772,8.7774415 15.194336,8.5005 c 0,-0.621321 0.484698,-1.125 1.083008,-1.125 C 16.677454,7.3755 17,7.0410005 17,6.6255 V 4.625 c 0,-0.4155 -0.322546,-0.75 -0.722656,-0.75 -0.59831,0 -1.083008,-0.5036793 -1.083008,-1.125 0,-0.4155 -0.321569,-0.75 -0.72168,-0.75 z M 16.5,2 C 16.223858,2 16,2.2238576 16,2.5 16,2.7761424 16.223858,3 16.5,3 16.776142,3 17,2.7761424 17,2.5 17,2.2238576 16.776142,2 16.5,2 Z m -12,6.0005 c -0.2761424,0 -0.5,0.2238576 -0.5,0.5 0,0.2761424 0.2238576,0.5 0.5,0.5 0.2761424,0 0.5,-0.2238576 0.5,-0.5 0,-0.2761424 -0.2238576,-0.5 -0.5,-0.5 z m 12,0 c -0.276142,0 -0.5,0.2238576 -0.5,0.5 0,0.2761424 0.223858,0.5 0.5,0.5 0.276142,0 0.5,-0.2238576 0.5,-0.5 0,-0.2761424 -0.223858,-0.5 -0.5,-0.5 z M 4.5,19 C 4.2238576,19 4,19.223858 4,19.5 4,19.776142 4.2238576,20 4.5,20 4.7761424,20 5,19.776142 5,19.5 5,19.223858 4.7761424,19 4.5,19 Z m 12,0 C 16.223858,19 16,19.223858 16,19.5 16,19.776142 16.223858,20 16.5,20 16.776142,20 17,19.776142 17,19.5 17,19.223858 16.776142,19 16.5,19 Z"/>
 <path style="opacity:0.1" d="m 10.617037,8.4999998 c -0.417361,0 -0.821889,0.095954 -1.194913,0.2258967 l 1.969995,1.9683655 c 0.404835,0.404492 0.404835,1.047555 0,1.452068 l -0.742785,0.74217 c -0.404836,0.404492 -1.048438,0.404492 -1.453275,0 L 7.2260662,10.920137 C 7.0960074,11.292835 7,11.697035 7,12.114056 c 0,1.995983 1.6194038,3.614034 3.617038,3.614034 0.417364,0 0.821892,-0.09596 1.194917,-0.225873 l 5.365722,5.372659 c 1.724719,1.728035 3.886566,-0.50056 2.228347,-2.161964 L 14.00801,13.307978 c 0.130056,-0.3727 0.226063,-0.7769 0.226063,-1.19392 0,-1.995984 -1.619403,-3.6140582 -3.617039,-3.6140582 z"/>
 <path style="opacity:0.1" d="M 4.5,2 C 4.2238576,2 4,2.2238576 4,2.5 4,2.5928949 4.0320373,2.6754706 4.0761719,2.75 4.1632333,2.6029807 4.3167525,2.5 4.5,2.5 4.6832475,2.5 4.8367667,2.6029807 4.9238281,2.75 4.9679627,2.6754706 5,2.5928949 5,2.5 5,2.2238576 4.7761424,2 4.5,2 Z m 2.0273438,0 c -0.400111,0 -0.7226563,0.3345 -0.7226563,0.75 0,0.6213207 -0.4837202,1.125 -1.0820313,1.125 C 4.3225468,3.875 4,4.2095 4,4.625 v 0.5 c 0,-0.4155 0.3225468,-0.75 0.7226562,-0.75 0.5983111,0 1.0820313,-0.5036793 1.0820313,-1.125 0,-0.4155 0.3225453,-0.75 0.7226563,-0.75 h 7.9453122 c 0.400111,0 0.722656,0.3345 0.722656,0.75 0,0.6213207 0.483722,1.125 1.082032,1.125 C 16.677454,4.375 17,4.7095 17,5.125 v -0.5 c 0,-0.4155 -0.322546,-0.75 -0.722656,-0.75 -0.59831,0 -1.082032,-0.5036793 -1.082032,-1.125 0,-0.4155 -0.322545,-0.75 -0.722656,-0.75 z M 16.5,2 C 16.223858,2 16,2.2238576 16,2.5 16,2.592895 16.03204,2.6754706 16.07617,2.75 16.163233,2.6029807 16.316753,2.5 16.5,2.5 c 0.183247,0 0.336767,0.1029807 0.423828,0.25 C 16.967963,2.6754706 17,2.5928949 17,2.5 17,2.2238576 16.776142,2 16.5,2 Z M 4.5,8 C 4.2238576,8 4,8.2238576 4,8.5 4,8.5928949 4.0320373,8.6754706 4.0761719,8.75 4.1633554,8.6034863 4.3171325,8.5 4.5,8.5 4.6828675,8.5 4.8366446,8.6034863 4.9238281,8.75 4.9679627,8.6754706 5,8.5928949 5,8.5 5,8.2238576 4.7761424,8 4.5,8 Z m 12,0 C 16.223858,8 16,8.2238576 16,8.5 16,8.592895 16.03204,8.6754706 16.07617,8.75 16.163355,8.6034863 16.317133,8.5 16.5,8.5 c 0.182867,0 0.336645,0.1034863 0.423828,0.25 C 16.967963,8.6754706 17,8.5928949 17,8.5 17,8.2238576 16.776142,8 16.5,8 Z M 5.7597656,8.7617188 C 5.7177075,8.9406506 5.6496296,9.110971 5.5292969,9.25 4.4600164,10.486118 4.0025605,11.588378 4,13.25 4,13.2723 4.00366,13.28676 4.00391,13.30859 4.0019929,13.372053 4.0000533,13.436512 4,13.5 4,13.55147 4.00662,13.601154 4.00781,13.652344 4.0292178,12.04885 4.4826742,10.959925 5.5292969,9.75 5.7075864,9.54401 5.8040875,9.276966 5.8046875,9 c 0,-0.084546 -0.027907,-0.1590648 -0.044922,-0.2382812 z m 9.4804684,0 C 15.22322,8.8409352 15.195312,8.9154544 15.195312,9 c 4.36e-4,0.276942 0.09717,0.543984 0.275391,0.75 1.047031,1.209752 1.499881,2.298702 1.521485,3.902344 C 16.993378,13.601154 17,13.551475 17,13.5 c 3.1e-5,-0.06609 1e-6,-0.131204 -0.002,-0.197266 C 16.998174,13.283708 17,13.269389 17,13.25 16.9972,11.588221 16.540401,10.485941 15.470703,9.25 15.350415,9.110954 15.282305,8.9406445 15.240234,8.7617188 Z M 4.5,19 C 4.2238576,19 4,19.223858 4,19.5 4,19.59289 4.032037,19.675471 4.076172,19.75 4.1632333,19.602981 4.3167525,19.5 4.5,19.5 c 0.1832475,0 0.3367667,0.102981 0.4238281,0.25 C 4.9679627,19.675471 5,19.592895 5,19.5 5,19.223858 4.7761424,19 4.5,19 Z m 12,0 c -0.276142,0 -0.5,0.223858 -0.5,0.5 0,0.09289 0.03204,0.175471 0.07617,0.25 0.08706,-0.147019 0.240581,-0.25 0.423828,-0.25 0.183247,0 0.336767,0.102981 0.423828,0.25 C 16.967963,19.675471 17,19.592895 17,19.5 17,19.223858 16.776142,19 16.5,19 Z"/>
 <path style="fill:#4f4f4f" d="M 10.617037,8 C 10.199676,8 9.795148,8.095954 9.422124,8.2258967 l 1.969995,1.9683663 c 0.404835,0.404491 0.404835,1.047554 0,1.452068 l -0.742785,0.74217 c -0.404836,0.404492 -1.048438,0.404492 -1.453275,0 L 7.2260662,10.420137 C 7.0960074,10.792836 7,11.197035 7,11.614056 c 0,1.995984 1.6194038,3.614035 3.617038,3.614035 0.417364,0 0.821892,-0.09596 1.194917,-0.225874 l 5.365722,5.37266 c 1.724719,1.728035 3.886566,-0.50056 2.228347,-2.161965 L 14.00801,12.807978 c 0.130056,-0.372699 0.226063,-0.776899 0.226063,-1.19392 C 14.234073,9.618075 12.61467,8 10.617034,8 Z"/>
 <path style="opacity:0.2;fill:#ffffff" d="M 4.5,1 C 3.669,1 3,1.7249655 3,2.6259765 v 0.5 C 3,2.2249655 3.669,1.5 4.5,1.5 h 12 c 0.831,0 1.5,0.7249655 1.5,1.6259765 v -0.5 C 18,1.7249655 17.331,1 16.5,1 Z"/>
</svg>
